bitrix/templates/main/img/svg/icon-one.svg

<?xml version="1.0" encoding="UTF-8"?>
<svg width="36px" height="36px" viewBox="0 0 36 36" version="1.1" xmlns="http://www.w3.org/2000/svg" xmlns:xlink="http://www.w3.org/1999/xlink">
    <!-- Generator: Sketch 45.1 (43504) - http://www.bohemiancoding.com/sketch -->
    <title>Icon</title>
    <desc>Created with Sketch.</desc>
    <defs>
        <circle id="path-1" cx="17" cy="17" r="17"></circle>
        <filter x="-5.9%" y="-2.9%" width="111.8%" height="111.8%" filterUnits="objectBoundingBox" id="filter-2">
            <feOffset dx="0" dy="1" in="SourceAlpha" result="shadowOffsetOuter1"></feOffset>
            <feGaussianBlur stdDeviation="0.5" in="shadowOffsetOuter1" result="shadowBlurOuter1"></feGaussianBlur>
            <feColorMatrix values="0 0 0 0 0   0 0 0 0 0   0 0 0 0 0  0 0 0 0.2 0" type="matrix" in="shadowBlurOuter1"></feColorMatrix>
        </filter>
        <polygon id="path-3" points="19.721467 25.2511429 19.721467 0 0 0 0 25.2511429 19.721467 25.2511429"></polygon>
    </defs>
    <g id="Prod" stroke="none" stroke-width="1" fill="none" fill-rule="evenodd">
        <g id="Prod_2-Copy-4" transform="translate(-1487.000000, -848.000000)">
            <g id="1-copy-2" transform="translate(1150.000000, 825.000000)">
                <g id="Icon" transform="translate(338.000000, 23.000000)">
                    <g id="Oval-2">
                        <use fill="black" fill-opacity="1" filter="url(#filter-2)" xlink:href="#path-1"></use>
                        <use fill="#39B54A" fill-rule="evenodd" xlink:href="#path-1"></use>
                    </g>
                    <g id="Page-1" transform="translate(6.800000, 4.250000)">
                        <mask id="mask-4" fill="white">
                            <use xlink:href="#path-3"></use>
                        </mask>
                        <g id="Clip-2"></g>
                        <path d="M15.9092655,19.1397916 C15.9092655,17.8719009 14.8776137,16.8408102 13.6094424,16.8408102 C12.3407099,16.8408102 11.3093387,17.8721814 11.3093387,19.1397916 C11.3093387,20.4090852 12.3409905,21.440737 13.6094424,21.440737 C14.8776137,21.440737 15.9092655,20.4090852 15.9092655,19.1397916 L15.9092655,19.1397916 Z M16.7534972,19.1397916 C16.7534972,20.8748296 15.3439192,22.2846882 13.6091618,22.2846882 C11.8741238,22.2846882 10.4651069,20.8748296 10.4651069,19.1397916 C10.4651069,17.5517718 11.6533161,16.2476876 13.1860639,16.0381027 L13.1860639,13.1148555 C13.1860639,12.8811417 13.3754479,12.6937217 13.6091618,12.6937217 C13.8423145,12.6937217 14.0322597,12.8811417 14.0322597,13.1148555 L14.0322597,16.0381027 C15.5647269,16.2476876 16.7534972,17.5517718 16.7534972,19.1397916 L16.7534972,19.1397916 Z M18.0314885,19.1397916 C18.0314885,17.4847158 17.1154311,15.9819889 15.6435667,15.216597 C15.3632784,15.0715429 15.1870812,14.7822764 15.1870812,14.466917 L15.1870812,3.26744904 C15.1870812,2.39768552 14.4789253,1.68981024 13.6091618,1.68981024 C12.738276,1.68981024 12.031523,2.39768552 12.031523,3.26744904 L12.031523,14.466917 C12.031523,14.7822764 11.8553257,15.0715429 11.5758791,15.216597 C10.1028925,15.9822695 9.18739627,17.4847158 9.18739627,19.1397916 C9.18739627,21.5782158 11.1710182,23.5632406 13.6091618,23.5632406 C16.0478665,23.56296 18.0314885,21.5782158 18.0314885,19.1397916 L18.0314885,19.1397916 Z M19.7216354,19.1397916 C19.7216354,22.5108267 16.9790746,25.2511429 13.6091618,25.2511429 C10.2389684,25.2511429 7.49781048,22.5108267 7.49781048,19.1397916 C7.49781048,17.0282303 8.57463384,15.0945495 10.3413761,13.9784465 L10.3413761,3.26744904 C10.3416566,1.46563571 11.8073485,-5.61137757e-05 13.6091618,-5.61137757e-05 C15.4112557,-5.61137757e-05 16.8763864,1.46563571 16.8763864,3.26744904 L16.8763864,13.978166 C18.6434092,15.0953913 19.7216354,17.0279497 19.7216354,19.1397916 L19.7216354,19.1397916 Z M6.60560145,10.1419477 L6.544718,11.8556624 C6.53545923,12.0832038 6.34860035,12.2616456 6.12302298,12.2616456 L6.10703055,12.2616456 C5.87359724,12.2529479 5.69178861,12.0573914 5.70020568,11.8242387 L5.77652041,9.70594367 L4.81192461,8.35556566 L3.82291931,9.6930375 L3.86304066,11.8082463 C3.8680909,12.041399 3.68207373,12.2344304 3.44920156,12.2392001 L3.44106507,12.2392001 C3.21099859,12.2392001 3.02301744,12.0559886 3.01824777,11.8250804 L2.98542121,10.110524 L1.33595677,10.5751461 C1.29723827,10.5863688 1.25851976,10.5911385 1.22036239,10.5911385 C1.03574807,10.5911385 0.866845607,10.4702133 0.813818089,10.283635 C0.751251229,10.0586187 0.881996326,9.8246243 1.10617086,9.76233801 L3.14618718,9.18745238 L4.13238678,7.85475021 L2.5617622,7.32307218 L0.559622685,8.00850195 C0.513889958,8.02449438 0.467596093,8.03178917 0.422424503,8.03178917 C0.246227248,8.03178917 0.0829361605,7.92208674 0.0228944205,7.74588948 C-0.0528591767,7.52480121 0.0644186145,7.28463425 0.285506891,7.20916122 L1.90915899,6.65335427 L0.962519594,5.22301413 C0.834019048,5.02829933 0.887046566,4.76652856 1.0814808,4.63746688 C1.27563446,4.50868576 1.53796636,4.56143271 1.66674748,4.75670865 L2.83531686,6.52345088 L4.39499925,7.05120094 L4.39499925,5.4053839 L3.09933217,3.72982656 C2.95680318,3.54493167 2.99103259,3.27979408 3.17564691,3.13726509 C3.35941952,2.99389439 3.62427654,3.02840436 3.76820838,3.21273811 L4.81697485,4.57097205 L5.86602188,3.21273811 C6.00686746,3.02840436 6.27312733,2.99417496 6.45802222,3.13726509 C6.64347825,3.27979408 6.67658537,3.54408996 6.53405638,3.72982656 L5.23951158,5.4053839 L5.23951158,7.05989858 L6.81799209,6.55711915 L8.01882689,4.81198072 C8.1512554,4.62063275 8.41470958,4.57097205 8.60493528,4.7039617 C8.79712496,4.83526794 8.84594394,5.09788041 8.713796,5.29007009 L7.74190541,6.70441781 L9.35461532,7.28659823 C9.57402018,7.36599922 9.68877285,7.60616618 9.60937186,7.82641275 C9.546805,7.99840147 9.3854779,8.10585935 9.21208633,8.10585935 C9.16410905,8.10585935 9.11641234,8.09772286 9.06983791,8.08032759 L7.07639603,7.36122955 L5.49819608,7.86400898 L6.46335303,9.21663154 L8.49158545,9.82602715 C8.71547941,9.89336368 8.84229655,10.128761 8.77467945,10.3515327 C8.72024908,10.5347441 8.55218833,10.6525831 8.37037969,10.6525831 C8.33110005,10.6525831 8.28957586,10.64613 8.24945451,10.6349072 L6.60560145,10.1419477 Z" id="Fill-1" fill="#FFFFFF" mask="url(#mask-4)"></path>
                    </g>
                </g>
            </g>
        </g>
    </g>
</svg>

<svg xmlns="http://www.w3.org/2000/svg" xmlns:xlink="http://www.w3.org/1999/xlink" width="36" height="36" viewBox="0 0 36 36"><defs><path id="b" d="M0 0h456v482H0z"/><filter id="a" width="107.5%" height="107.1%" x="-3.7%" y="-2.7%" filterUnits="objectBoundingBox"><feOffset dy="4" in="SourceAlpha" result="shadowOffsetOuter1"/><feGaussianBlur in="shadowOffsetOuter1" result="shadowBlurOuter1" stdDeviation="5"/><feColorMatrix in="shadowBlurOuter1" values="0 0 0 0 0 0 0 0 0 0 0 0 0 0 0 0 0 0 0.1 0"/></filter><circle id="d" cx="17" cy="17" r="17"/><filter id="c" width="111.8%" height="111.8%" x="-5.9%" y="-2.9%" filterUnits="objectBoundingBox"><feOffset dy="1" in="SourceAlpha" result="shadowOffsetOuter1"/><feGaussianBlur in="shadowOffsetOuter1" result="shadowBlurOuter1" stdDeviation=".5"/><feColorMatrix in="shadowBlurOuter1" values="0 0 0 0 0 0 0 0 0 0 0 0 0 0 0 0 0 0 0.2 0"/></filter><path id="e" d="M19.72 25.25V0H0v25.25h19.72z"/></defs><g fill="none" fill-rule="evenodd"><g transform="translate(-403 -23)"><use fill="#000" filter="url(#a)" xlink:href="#b"/><use fill="#FFF" xlink:href="#b"/></g><g transform="translate(1)"><use fill="#000" filter="url(#c)" xlink:href="#d"/><use fill="#39B54A" xlink:href="#d"/></g><g transform="translate(7.8 4.25)"><mask id="f" fill="#fff"><use xlink:href="#e"/></mask><path fill="#FFF" d="M15.91 19.14a2.302 2.302 0 0 0-2.3-2.3 2.302 2.302 0 0 0-2.3 2.3c0 1.27 1.03 2.3 2.3 2.3 1.268 0 2.3-1.03 2.3-2.3zm.843 0a3.147 3.147 0 0 1-3.144 3.145 3.147 3.147 0 0 1-3.145-3.145 3.14 3.14 0 0 1 2.72-3.102v-2.923c0-.234.19-.42.424-.42.232 0 .422.186.422.42v2.923c1.533.21 2.72 1.514 2.72 3.102zm1.278 0a4.41 4.41 0 0 0-2.386-3.923.844.844 0 0 1-.457-.75v-11.2a1.58 1.58 0 0 0-3.156 0v11.2a.845.845 0 0 1-.454.75 4.41 4.41 0 0 0-2.39 3.923 4.428 4.428 0 0 0 4.423 4.423 4.428 4.428 0 0 0 4.42-4.423zm1.69 0a6.118 6.118 0 0 1-6.11 6.11 6.117 6.117 0 0 1-6.112-6.11 6.088 6.088 0 0 1 2.843-5.162V3.268A3.27 3.27 0 0 1 13.61 0a3.27 3.27 0 0 1 3.267 3.267v10.71a6.09 6.09 0 0 1 2.846 5.163zM6.608 10.142l-.06 1.714a.423.423 0 0 1-.423.406h-.016a.422.422 0 0 1-.407-.438l.078-2.118-.965-1.35-.99 1.337.04 2.115a.423.423 0 0 1-.413.43h-.008a.422.422 0 0 1-.423-.413l-.034-1.714-1.65.465a.422.422 0 0 1-.23-.813l2.04-.575.987-1.332-1.57-.532L.56 8.01a.42.42 0 0 1-.537-.263.422.422 0 0 1 .263-.537l1.623-.556-.947-1.43a.423.423 0 0 1 .704-.466l1.168 1.766 1.56.528V5.405L3.1 3.73a.423.423 0 0 1 .67-.517L4.815 4.57l1.05-1.358a.422.422 0 1 1 .667.517L5.24 5.404V7.06l1.578-.503 1.2-1.745a.42.42 0 1 1 .696.478l-.972 1.414 1.613.583a.42.42 0 1 1-.285.793l-1.994-.72-1.578.504.965 1.353 2.03.61a.42.42 0 1 1-.244.808l-1.644-.493z" mask="url(#f)"/></g></g></svg>
